X: 25001
T: Maid On The Green, The
R: jig
M: 6/8
K: Gmajor
d|gag e2d|Bee dBA|BAG AGA|BAA A2d|
gfg e2d|Bee dBA|BAG dBA|AGG G2:|
e|ggg aff|ggg a2e|ggg egg|ffe d2e|
bbb aaa|ggg e2d|Bde dBA|AGG G2:|

